X:1
T:Polska efter Törnlund
R:Polska
S:Efter Lars Törnlund
Z:ABC-transkribering av Erik Ronström
M:3/4
L:1/16
K:A
e2a2 edcB ABcd|e2f2 d4 c4|e3e c2A2 BABc|dBGB A2E2 C2A,2|
e2a2 edcB ABcd|ef=ge edfd c4|e3e c2A2 BABc|dBGB A6:|
K:D
|:f3g a2ag b2bg|a2af gece d4|f3g a2ag b2bg|a2af gece d4|
A3=c B2G2 A2g2|f2ed ^cdeg f4|A3=c B2G2 A2g2|f2ed ^cdeg f4|
g2b2 e2d2 c2BA|B2c2 d8:|

